build/img/icon-percent.svg

<svg width="24" height="24" viewBox="0 0 24 24" fill="none" xmlns="http://www.w3.org/2000/svg">
<path fill-rule="evenodd" clip-rule="evenodd" d="M7 9C5.89543 9 5 8.10457 5 7C5 5.89543 5.89543 5 7 5C8.10457 5 9 5.89543 9 7C9 8.10457 8.10457 9 7 9ZM3 7C3 9.20914 4.79086 11 7 11C9.20914 11 11 9.20914 11 7C11 4.79086 9.20914 3 7 3C4.79086 3 3 4.79086 3 7ZM16.9998 19C15.8953 19 14.9998 18.1046 14.9998 17C14.9998 15.8954 15.8953 15 16.9998 15C18.1044 15 18.9998 15.8954 18.9998 17C18.9998 18.1046 18.1044 19 16.9998 19ZM12.9998 17C12.9998 19.2091 14.7907 21 16.9998 21C19.209 21 20.9998 19.2091 20.9998 17C20.9998 14.7909 19.209 13 16.9998 13C14.7907 13 12.9998 14.7909 12.9998 17ZM19.7071 5.70714L20.4142 5.00003L19 3.58582L18.2929 4.29292L4.29289 18.2929L3.58579 19L5 20.4142L5.70711 19.7071L19.7071 5.70714Z" fill="currentColor"/>
</svg>

<svg width="24" height="24" viewBox="0 0 24 24" fill="none" xmlns="http://www.w3.org/2000/svg"><path fill-rule="evenodd" clip-rule="evenodd" d="M7 9a2 2 0 110-4 2 2 0 010 4zM3 7a4 4 0 108 0 4 4 0 00-8 0zm14 12a2 2 0 110-4 2 2 0 010 4zm-4-2a4 4 0 108 0 4 4 0 00-8 0zm6.707-11.293L20.414 5 19 3.586l-.707.707-14 14-.707.707L5 20.414l.707-.707 14-14z" fill="currentColor"/></svg>
